assets/svg/1F55D.svg

<svg xmlns="http://www.w3.org/2000/svg" viewBox="0 0 64 64" enable-background="new 0 0 64 64"><circle fill="#e0e7ec" cx="32.04" cy="32.04" r="29.68"/><path fill="#d1d7da" d="m52.36 47.23c-16.392 0-29.68-13.288-29.68-29.678 0-5.451 1.495-10.542 4.058-14.932-13.798 2.551-24.26 14.624-24.26 29.16 0 16.394 13.288 29.682 29.68 29.682 10.943 0 20.474-5.939 25.622-14.75-1.76.326-3.567.517-5.423.517"/><path fill="#98a9b4" d="m32.04 0c-17.666 0-32.04 14.372-32.04 32.04 0 17.666 14.374 32.04 32.04 32.04 17.666 0 32.04-14.372 32.04-32.04 0-17.668-14.372-32.04-32.04-32.04m0 57.843c-14.228 0-25.803-11.575-25.803-25.803s11.575-25.803 25.803-25.803c14.226 0 25.801 11.575 25.801 25.803s-11.575 25.803-25.801 25.803"/><path fill="#85939c" d="m33.92 53.02c0 1.441-.849 2.607-1.893 2.607l0 0c-1.044 0-1.893-1.166-1.893-2.607v-21.11c0-1.443.849-2.609 1.893-2.609l0 0c1.044 0 1.893 1.166 1.893 2.609v21.11"/><path fill="#788288" d="m43.45 20.08c1.142-.875 2.585-.919 3.221-.091l0 0c.636.828.228 2.216-.913 3.091l-12.11 9.315c-1.14.877-2.584.916-3.219.087l0 0c-.638-.826-.23-2.21.91-3.089l12.11-9.313"/></svg>

<?xml version="1.0" encoding="UTF-8" standalone="no"?>
<!-- Generator: Adobe Illustrator 16.0.0, SVG Export Plug-In . SVG Version: 6.00 Build 0)  -->

<svg
   xmlns:dc="http://purl.org/dc/elements/1.1/"
   xmlns:cc="http://creativecommons.org/ns#"
   xmlns:rdf="http://www.w3.org/1999/02/22-rdf-syntax-ns#"
   xmlns:svg="http://www.w3.org/2000/svg"
   xmlns="http://www.w3.org/2000/svg"
   xmlns:sodipodi="http://sodipodi.sourceforge.net/DTD/sodipodi-0.dtd"
   xmlns:inkscape="http://www.inkscape.org/namespaces/inkscape"
   version="1.1"
   id="Layer_1"
   x="0px"
   y="0px"
   width="64px"
   height="64px"
   viewBox="0 0 64 64"
   enable-background="new 0 0 64 64"
   xml:space="preserve"
   inkscape:version="0.48.5 r10040"
   sodipodi:docname="1F55D.svg"
   inkscape:export-filename="D:\TESTINGEMOJI\SVGTEST\1F55D.png"
   inkscape:export-xdpi="90"
   inkscape:export-ydpi="90"><metadata
   id="metadata4507"><rdf:RDF><cc:Work
       rdf:about=""><dc:format>image/svg+xml</dc:format><dc:type
         rdf:resource="http://purl.org/dc/dcmitype/StillImage" /><dc:title></dc:title></cc:Work></rdf:RDF></metadata><defs
   id="defs4505" /><sodipodi:namedview
   pagecolor="#ffffff"
   bordercolor="#666666"
   borderopacity="1"
   objecttolerance="10"
   gridtolerance="10"
   guidetolerance="10"
   inkscape:pageopacity="0"
   inkscape:pageshadow="2"
   inkscape:window-width="640"
   inkscape:window-height="480"
   id="namedview4503"
   showgrid="false"
   inkscape:zoom="3.6875"
   inkscape:cx="32"
   inkscape:cy="32"
   inkscape:window-x="671"
   inkscape:window-y="385"
   inkscape:window-maximized="0"
   inkscape:current-layer="Layer_1" />
<g
   id="g4491">
	<circle
   fill="#E0E7EC"
   cx="32.038"
   cy="32.038"
   r="29.68"
   id="circle4493" />
	<path
   fill="#D1D7DA"
   d="M52.362,47.229c-16.392,0-29.68-13.288-29.68-29.678c0-5.451,1.495-10.542,4.058-14.932   C12.942,5.17,2.483,17.243,2.483,31.78c0,16.394,13.288,29.682,29.68,29.682c10.943,0,20.474-5.939,25.622-14.75   C56.025,47.038,54.218,47.229,52.362,47.229z"
   id="path4495" />
	<path
   fill="#98A9B4"
   d="M32.04,0C14.374,0,0,14.372,0,32.04c0,17.666,14.374,32.038,32.04,32.038   c17.666,0,32.038-14.372,32.038-32.038C64.078,14.372,49.706,0,32.04,0z M32.04,57.843c-14.228,0-25.803-11.575-25.803-25.803   S17.812,6.237,32.04,6.237c14.226,0,25.801,11.575,25.801,25.803S46.266,57.843,32.04,57.843z"
   id="path4497" />
	<path
   fill="#85939C"
   d="M33.92,53.025c0,1.441-0.849,2.607-1.893,2.607l0,0c-1.044,0-1.893-1.166-1.893-2.607V31.917   c0-1.443,0.849-2.609,1.893-2.609l0,0c1.044,0,1.893,1.166,1.893,2.609V53.025z"
   id="path4499" />
	<path
   fill="#788288"
   d="M43.455,20.08c1.142-0.875,2.585-0.919,3.221-0.091l0,0c0.636,0.828,0.228,2.216-0.913,3.091l-12.108,9.315   c-1.14,0.877-2.584,0.916-3.219,0.087l0,0c-0.638-0.826-0.23-2.21,0.91-3.089L43.455,20.08z"
   id="path4501" />
</g>
</svg>
